public/icons/ci-cd.svg

<?xml version="1.0" encoding="UTF-8" standalone="no" ?>
<!DOCTYPE svg PUBLIC "-//W3C//DTD SVG 1.1//EN" "http://www.w3.org/Graphics/SVG/1.1/DTD/svg11.dtd">
<svg xmlns="http://www.w3.org/2000/svg" xmlns:xlink="http://www.w3.org/1999/xlink" version="1.1" width="1080" height="1080" viewBox="0 0 1080 1080" xml:space="preserve">
<desc>Created with Fabric.js 5.2.4</desc>
<defs>
</defs>
<rect x="0" y="0" width="100%" height="100%" fill="transparent"></rect>
<g transform="matrix(1 0 0 1 540 540)" id="2d831029-7c52-4772-85d0-2cc7e614e5d8"  >
</g>
<g transform="matrix(1 0 0 1 540 540)" id="d6168086-9d48-4895-8a10-8bb75ebf5a68"  >
<rect style="stroke: none; stroke-width: 1; stroke-dasharray: none; stroke-linecap: butt; stroke-dashoffset: 0; stroke-linejoin: miter; stroke-miterlimit: 4; fill: rgb(255,255,255); fill-rule: nonzero; opacity: 1; visibility: hidden;" vector-effect="non-scaling-stroke"  x="-540" y="-540" rx="0" ry="0" width="1080" height="1080" />
</g>
<g transform="matrix(0 0 0 0 0 0)"  >
<g style=""   >
</g>
</g>
<g transform="matrix(0 0 0 0 0 0)"  >
<g style=""   >
</g>
</g>
<g transform="matrix(0 0 0 0 0 0)"  >
<g style=""   >
</g>
</g>
<g transform="matrix(0 0 0 0 0 0)"  >
<g style=""   >
</g>
</g>
<g transform="matrix(NaN NaN NaN NaN 0 0)"  >
<g style=""   >
</g>
</g>
<g transform="matrix(NaN NaN NaN NaN 0 0)"  >
<g style=""   >
</g>
</g>
<g transform="matrix(1 0 0 1 540 540)"  >
<g style="" vector-effect="non-scaling-stroke"   >
		<g transform="matrix(22.22 0 0 22.22 149.16 49.89)"  >
<path style="stroke: none; stroke-width: 1; stroke-dasharray: none; stroke-linecap: butt; stroke-dashoffset: 0; stroke-linejoin: miter; stroke-miterlimit: 4; fill: rgb(251,150,56); fill-rule: nonzero; opacity: 1;" vector-effect="non-scaling-stroke"  transform=" translate(-24.2, -20.61)" d="M 23.53 19.81 C 22.97501231411093 19.811645935576113 22.421578528468544 19.75127134077876 21.880000000000003 19.63 C 22.19568833155286 20.312126136783014 22.437077181097916 21.02623481668714 22.6 21.759999999999994 C 22.900000000000002 21.759999999999998 23.21 21.759999999999998 23.53 21.759999999999998 C 24.549790000150065 21.758402317213196 25.562699255450944 21.59296047218072 26.529999999999998 21.270000000000003 L 25.6 19.46 C 24.929303574894323 19.670992645138867 24.232780583261356 19.788762233096133 23.53 19.81 Z" stroke-linecap="round" />
</g>
		<g transform="matrix(22.22 0 0 22.22 -6.43 -58.48)"  >
<path style="stroke: none; stroke-width: 1; stroke-dasharray: none; stroke-linecap: butt; stroke-dashoffset: 0; stroke-linejoin: miter; stroke-miterlimit: 4; fill: rgb(251,150,56); fill-rule: nonzero; opacity: 1;" vector-effect="non-scaling-stroke"  transform=" translate(-17.2, -15.73)" d="M 18.36 17.87 L 18 17.49 C 16.419130919556668 15.944394701432337 15.612155597536677 13.772897471269454 15.8 11.569999999999997 C 15.902121327628873 10.112741779541263 16.438517767935604 8.719504272251058 17.34 7.57 L 17.26 9 C 17.25789428615823 9.51896519584113 17.653136246025788 9.953297019871416 18.17 10 L 18.26 10 C 18.77896519584113 10.002105713841772 19.213297019871415 9.606863753974212 19.26 9.09 L 19.6 5 C 19.62423583288178 4.706830166098844 19.518158384142435 4.417860564360623 19.310000000000002 4.21 C 19.088608096835415 4.03065278224677 18.801225247958666 3.9542598730516856 18.52 4 L 14.43 4.35 C 13.877715250169206 4.396944203735617 13.468055796264382 4.882715250169206 13.515 5.435 C 13.561944203735617 5.987284749830793 14.047715250169206 6.396944203735617 14.6 6.35 L 15.89 6.239999999999999 C 14.675268042898235 7.7599969364024375 13.959343683070955 9.617907958002984 13.839999999999998 11.560000000000002 C 13.630900555724214 14.253265020006713 14.605743293099678 16.90396100253326 16.51 18.82 L 16.819999999999997 19.19 C 18.09785720813885 20.510585225013834 18.833075543167585 22.262974557533774 18.879999999999995 24.1 C 18.933298471704013 24.932105359267755 18.845390580007347 25.76723033038607 18.619999999999994 26.569999999999997 L 20.419999999999995 27.48 C 20.807218020598388 26.352795685983708 20.96034183463702 25.15842993648237 20.869999999999994 23.97 C 20.808597324146252 21.69789507866048 19.91546519844558 19.527334932535336 18.36 17.87 Z" stroke-linecap="round" />
</g>
		<g transform="matrix(22.22 0 0 22.22 211.11 -155.11)"  >
<path style="stroke: none; stroke-width: 1; stroke-dasharray: none; stroke-linecap: butt; stroke-dashoffset: 0; stroke-linejoin: miter; stroke-miterlimit: 4; fill: rgb(251,150,56); fill-rule: nonzero; opacity: 1;" vector-effect="non-scaling-stroke"  transform=" translate(-26.99, -11.39)" d="M 32.4 17.91 L 31.19 18 C 33.44262188852268 15.084495741294415 33.83854927625937 11.140758172862606 32.21043904407184 7.835651892116381 C 30.582328811884313 4.530545611370156 27.214343653836007 2.4409283066497984 23.53 2.4499999999999993 C 22.50993754282057 2.448237690138495 21.496489965222594 2.6137674611461637 20.53 2.9400000000000004 L 21.44 4.74 C 23.75442259355993 4.084536558112708 26.242290100475543 4.5528126465754495 28.16002701763079 6.004869595118204 C 30.077763934786038 7.456926543660958 31.20321327969122 9.724553276402695 31.200000000000003 12.130000000000004 C 31.19968609603277 13.844670191617704 30.618024120333455 15.508575964527266 29.550000000000004 16.849999999999998 L 29.650000000000006 15.309999999999999 C 29.685898508739008 14.757715250169205 29.2672847498308 14.280898508739 28.715000000000007 14.244999999999997 C 28.162715250169214 14.209101491260997 27.685898508739008 14.627715250169205 27.650000000000006 15.179999999999998 L 27.370000000000005 19.259999999999998 C 27.353936784532866 19.552881885959096 27.46727201514034 19.83804795006822 27.680000000000003 20.04 C 27.86164879621674 20.224338631018387 28.11126208605789 20.325630980519144 28.370000000000005 20.32 L 28.470000000000006 20.32 L 32.550000000000004 19.9 C 32.815754234479655 19.874765998261683 33.06038752219827 19.744323074652396 33.22943007216128 19.537715513586495 C 33.39847262212429 19.331107952520597 33.47789028235149 19.06548860641833 33.45 18.799999999999997 C 33.392332871840345 18.27133064871267 32.930973764455175 17.88027388150048 32.4 17.91 Z" stroke-linecap="round" />
</g>
		<g transform="matrix(22.22 0 0 22.22 -212.1 -21.15)"  >
<path style="stroke: none; stroke-width: 1; stroke-dasharray: none; stroke-linecap: butt; stroke-dashoffset: 0; stroke-linejoin: miter; stroke-miterlimit: 4; fill: rgb(251,150,56); fill-rule: nonzero; opacity: 1;" vector-effect="non-scaling-stroke"  transform=" translate(-7.95, -17.41)" d="M 4.07 20.44 L 4.15 20.44 L 8.24 20.09 C 8.792284749830793 20.043055796264383 9.201944203735618 19.557284749830792 9.155000000000001 19.005 C 9.108055796264383 18.452715250169206 8.622284749830794 18.043055796264383 8.07 18.09 L 6.680000000000001 18.21 C 7.989269967906619 17.244122266940316 9.573007853699002 16.72204937980964 11.199999999999992 16.720000000000002 C 11.748106468048878 16.72329135259108 12.294382258916919 16.783616286551965 12.829999999999998 16.900000000000002 C 12.515900962948482 16.218200185966577 12.27780065877884 15.503899273457655 12.119999999999997 14.770000000000005 C 11.819999999999997 14.770000000000003 11.509999999999998 14.770000000000003 11.199999999999998 14.770000000000003 C 9.06643192994541 14.766817220181562 6.991835058867986 15.470070396817976 5.299999999999997 16.770000000000003 L 5.419999999999997 15.460000000000003 C 5.442087612958403 15.194591949825522 5.357391423715666 14.931337423180162 5.184688241728013 14.728598905194657 C 5.01198505974036 14.52586038720915 4.765543975284882 14.400388549078347 4.499999999999997 14.380000000000003 C 3.950725266205998 14.333837709317963 3.4676726216484774 14.740854289454393 3.4199999999999973 15.290000000000003 L 3.069999999999997 19.370000000000005 C 3.047624245827738 19.648782440949667 3.1430176417560585 19.92419574303142 3.333033777174269 20.129413169283087 C 3.5230499125924797 20.334630595534755 3.7903224714062294 20.45089652457444 4.069999999999997 20.450000000000003 Z" stroke-linecap="round" />
</g>
		<g transform="matrix(22.22 0 0 22.22 -155.11 211.22)"  >
<path style="stroke: none; stroke-width: 1; stroke-dasharray: none; stroke-linecap: butt; stroke-dashoffset: 0; stroke-linejoin: miter; stroke-miterlimit: 4; fill: rgb(251,150,56); fill-rule: nonzero; opacity: 1;" vector-effect="non-scaling-stroke"  transform=" translate(-10.51, -27.87)" d="M 18.42 28.23 L 14.330000000000002 28.5 C 13.777715250169209 28.535898508739002 13.359101491261 29.012715250169208 13.395000000000003 29.565 C 13.430898508739004 30.117284749830795 13.90771525016921 30.535898508739002 14.460000000000003 30.5 L 16 30.39 C 13.688778429204 32.24756741007222 10.517069870605944 32.61510078702276 7.842294708691783 31.33530405883417 C 5.167519546777623 30.055507330645575 3.4636872633699305 27.355179292448263 3.460000000000001 24.389999999999997 C 3.4672037943264797 23.713396215704233 3.564732486574759 23.04078454502645 3.7500000000000018 22.39 L 2 21.46 C 1.6902048018592484 22.412746791381252 1.5316146199822487 23.408153252098586 1.5299999999999994 24.410000000000007 C 1.5539350134995995 28.10448605188373 3.6745266006259287 31.46458124284123 6.999174297124739 33.07595263597188 C 10.323821993623548 34.68732402910253 14.275164203132062 34.270139279809044 17.19 32 L 17.07 33.18 C 17.042009223661328 33.44391823939719 17.120079124718135 33.70813867206673 17.287013376432554 33.91446190452275 C 17.453947628146974 34.120785136978775 17.69605251577262 34.25228635324262 17.96 34.28 L 18.07 34.28 C 18.585478068294996 34.28258324818722 19.018458018652456 33.89290129286551 19.07 33.38 L 19.490000000000002 29.320000000000004 C 19.520064720655693 29.027161354415462 19.419573646400536 28.735952118103814 19.215306797409845 28.523977086132337 C 19.01103994841915 28.312002054160864 18.723750991330053 28.200798050398287 18.430000000000003 28.220000000000002 Z" stroke-linecap="round" />
</g>
</g>
</g>
<g transform="matrix(NaN NaN NaN NaN 0 0)"  >
<g style=""   >
</g>
</g>
<g transform="matrix(NaN NaN NaN NaN 0 0)"  >
<g style=""   >
</g>
</g>
</svg>

<?xml version="1.0" encoding="utf-8"?>
<!-- Uploaded to: SVG Repo, www.svgrepo.com, Generator: SVG Repo Mixer Tools -->
<svg fill="#000000" width="800px" height="800px" viewBox="0 0 36 36" xmlns="http://www.w3.org/2000/svg">
<title>ci_cd_line</title>
<g id="a9b55181-08cd-4e23-b315-7b35ac037aca" data-name="Layer 3">
<path d="M23.53,19.81a7.45,7.45,0,0,1-1.65-.18,10.48,10.48,0,0,1,.72,2.13c.3,0,.61,0,.93,0a9.52,9.52,0,0,0,3-.49l-.93-1.81A7.67,7.67,0,0,1,23.53,19.81Z"/>
<path d="M18.36,17.87,18,17.49a7.4,7.4,0,0,1-2.2-5.92,7.31,7.31,0,0,1,1.54-4L17.26,9A1,1,0,0,0,18.17,10h.09a1,1,0,0,0,1-.91L19.6,5a1,1,0,0,0-.29-.79A1,1,0,0,0,18.52,4l-4.09.35a1,1,0,0,0,.17,2l1.29-.11a9.45,9.45,0,0,0-2.05,5.32,9.28,9.28,0,0,0,2.67,7.26l.31.37a7.33,7.33,0,0,1,2.06,4.91,7.39,7.39,0,0,1-.26,2.47l1.8.91a8.76,8.76,0,0,0,.45-3.51A9.28,9.28,0,0,0,18.36,17.87Z"/>
<path d="M32.4,17.91,31.19,18A9.65,9.65,0,0,0,23.53,2.45a9.33,9.33,0,0,0-3,.49l.91,1.8a7.67,7.67,0,0,1,9.76,7.39,7.58,7.58,0,0,1-1.65,4.72l.1-1.54a1,1,0,1,0-2-.13l-.28,4.08a1,1,0,0,0,.31.78.94.94,0,0,0,.69.28h.1l4.08-.42a1,1,0,0,0,.9-1.1A1,1,0,0,0,32.4,17.91Z"/>
<path d="M4.07,20.44h.08l4.09-.35a1,1,0,1,0-.17-2l-1.39.12a7.63,7.63,0,0,1,4.52-1.49,7.9,7.9,0,0,1,1.63.18,10.23,10.23,0,0,1-.71-2.13c-.3,0-.61,0-.92,0a9.66,9.66,0,0,0-5.9,2l.12-1.31a1,1,0,0,0-.92-1.08,1,1,0,0,0-1.08.91l-.35,4.08a1,1,0,0,0,1,1.08Z"/>
<path d="M18.42,28.23l-4.09.27a1,1,0,0,0,.13,2L16,30.39a7.71,7.71,0,0,1-12.54-6,7.6,7.6,0,0,1,.29-2L2,21.46a9.59,9.59,0,0,0-.47,2.95A9.7,9.7,0,0,0,17.19,32l-.12,1.18a1,1,0,0,0,.89,1.1h.11a1,1,0,0,0,1-.9l.42-4.06a1,1,0,0,0-1.06-1.1Z"/>
</g>
</svg>
